static/images/contact/clutch-stars.svg

<svg width="190" height="38" viewBox="0 0 190 38" fill="none" xmlns="http://www.w3.org/2000/svg">
<path d="M18.9751 27.3195L28.7512 33.2199L26.1569 22.0992L34.794 14.6169L23.4202 13.6361L18.9751 3.16406L14.53 13.6361L3.15625 14.6169L11.7775 22.0992L9.19905 33.2199L18.9751 27.3195Z" fill="#ED2F24"/>
<path d="M56.9439 27.3195L66.7199 33.2199L64.1256 22.0992L72.7627 14.6169L61.389 13.6361L56.9439 3.16406L52.4988 13.6361L41.125 14.6169L49.7463 22.0992L47.1678 33.2199L56.9439 27.3195Z" fill="#ED2F24"/>
<path d="M94.9087 27.3195L104.685 33.2199L102.09 22.0992L110.728 14.6169L99.3538 13.6361L94.9087 3.16406L90.4636 13.6361L79.0898 14.6169L87.7111 22.0992L85.1326 33.2199L94.9087 27.3195Z" fill="#ED2F24"/>
<path d="M132.877 27.3195L142.654 33.2199L140.059 22.0992L148.696 14.6169L137.323 13.6361L132.877 3.16406L128.432 13.6361L117.059 14.6169L125.68 22.0992L123.101 33.2199L132.877 27.3195Z" fill="#ED2F24"/>
<path d="M170.842 27.3195L180.618 33.2199L178.024 22.0992L186.661 14.6169L175.287 13.6361L170.842 3.16406L166.397 13.6361L155.023 14.6169L163.645 22.0992L161.066 33.2199L170.842 27.3195Z" fill="#ED2F24"/>
</svg>

<svg xmlns="http://www.w3.org/2000/svg" width="190" height="38" fill="none" viewBox="0 0 190 38"><path fill="#ed2f24" d="m18.975 27.32 9.776 5.9-2.594-11.12 8.637-7.483-11.374-.98-4.445-10.473-4.445 10.472-11.374.98 8.622 7.483-2.579 11.12zM56.944 27.32l9.776 5.9-2.594-11.12 8.637-7.483-11.374-.98-4.445-10.473-4.445 10.472-11.374.98 8.621 7.483-2.578 11.12zM94.909 27.32l9.776 5.9-2.595-11.12 8.638-7.483-11.374-.98-4.445-10.473-4.445 10.472-11.374.98L87.71 22.1l-2.578 11.12zM132.877 27.32l9.777 5.9-2.595-11.12 8.637-7.483-11.373-.98-4.446-10.473-4.445 10.472-11.373.98 8.621 7.483-2.579 11.12zM170.842 27.32l9.776 5.9-2.594-11.12 8.637-7.483-11.374-.98-4.445-10.473-4.445 10.472-11.374.98 8.622 7.483-2.579 11.12z"/></svg>
